// @title W02-03
// @license CC BY-NC-SA 4.0 https://creativecommons.org/licenses/by-nc-sa/4.0/
// @sophie Sanchez
// @date Jan 27, 2026


samples('github:tidalcycles/dirt-samples')
n("0 1 ~ ~ 2 3 ~ 4 5 6 ~ 7 8 9 10 ").add("<48 60>")
 .s("stab")
