// @title W10-03
// @license CC BY-NC-SA 4.0 https://creativecommons.org/licenses/by-nc-sa/4.0/
// @sophie Sanchez
// @date March 23, 2026


$: note("<[e4 ~ b3 ~] [g4 ~ d4 ~] [a4 ~ e4 ~] [b4 ~ f#4 ~]>")
  .sound("supersaw").cutoff(2200).shape(0.45)
  .gain(0.5).room(0.2).slow(2)

$: note("<[e4 ~ b3 ~] [g4 ~ d4 ~] [a4 ~ e4 ~] [b4 ~ f#4 ~]>")
  .sound("gm_fx_brightness")
  .gain(0.8).room(0.4).slow(2)
