
// @title W09-01
// @license CC BY-NC-SA 4.0 https://creativecommons.org/licenses/by-nc-sa/4.0/
// @sophie Sanchez
// @date March 16, 2026


osc(30, 0.6, 1.5)
  .kaleid(20)
  .rotate(() => time * 0.2)
  .color(6, 0.5, 0.5)
  .invert(9)
  .out()
